images/banners.svg

<svg xmlns="http://www.w3.org/2000/svg" viewBox="0 0 14 13"><path d="M0 6h6V0H0v6zm1-5h4v4H1V1zm7-1v8h6V0H8zm5 7H9V1h4v6zM0 13h6V8H0v5zm1-4h4v3H1V9zm7 4h6v-3H8v3zm1-2h4v1H9v-1z"/></svg>

<?xml version="1.0" encoding="utf-8"?>
<!-- Generator: Adobe Illustrator 21.1.0, SVG Export Plug-In . SVG Version: 6.00 Build 0)  -->
<svg version="1.1" id="Layer_1" xmlns="http://www.w3.org/2000/svg" xmlns:xlink="http://www.w3.org/1999/xlink" x="0px" y="0px"
	 viewBox="0 0 14 13" style="enable-background:new 0 0 14 13;" xml:space="preserve">
<path d="M0,6h6V0H0V6z M1,1h4v4H1V1z M8,0v8h6V0H8z M13,7H9V1h4V7z M0,13h6V8H0V13z M1,9h4v3H1V9z M8,13h6v-3H8V13z M9,11h4v1H9V11z
	"/>
</svg>
